X: 1437
T: Foster's Varsovienne
B: australian traditional tunes wiki
M:3/4
L:1/8
R: Varsovienne
Q: 1/4=100
K:C
V:1 
|:(3GAB|"C"c2B2G2|"F"A4G>A|"G7"B2D2A2|"C" G4(3G,A,B,|"F"C2D2E2|"Dm"F2-F>D C>D|"G7"E>GE2D2|1"C"C4:|2"C"C4G2||
|:"C"c>cc2A2|G>GG2E2|"G7" F>FF2D2|"C" E2G2(3GAB|c>cc2A2|G>GG2E2|"G7"F2E2D2|1"C"C4(3GAB:|2"C" C4||
% abcbook-tune_id 6342d53abf0c7ae927be9810


% abcbook-boost 0
% abcbook-tablature 
% abcbook-transpose 
% abcbook-lastupdated 1665324365037
% abcbook-soundfonts 
% abcbook-repeats 1
% NFF Book 2022
% Bush Traditions recording played by Ray Mulligan

